COLOR/action 16/16/configure.svg

<svg height="16" width="16" xmlns="http://www.w3.org/2000/svg"><g transform="matrix(1.0141184 0 0 1.0141184 -559.88324 -466.58634)"><path d="m564.41461 460.0906c.39823 0 .78422.0916 1.14015.21572l-1.87972 1.87971c-.38628.38627-.38628 1.00037 0 1.38667l.70875.70874c.38628.38628 1.00039.38628 1.38668 0l1.8797-1.87971c.1241.35591.21571.74191.21571 1.14015 0 1.90608-1.54519 3.45126-3.45127 3.45126-.39824 0-.78424-.0916-1.14016-.2157l-1.17096 1.17097c-.0205-.00026-.0411-.00026-.0616 0l-2.0646-2.0646 1.20178-1.20178c-.1241-.35592-.21571-.74191-.21571-1.14015 0-1.90609 1.54519-3.45128 3.45128-3.45128zm-2.54374 3.88862 2.06459 2.0646c-.0109.0306-.0211.0614-.0308.0924l-5.12918 5.14015c.1241.35596.2157.74196.2157 1.14019 0 1.90609-1.54518 3.45129-3.45127 3.45129-.43227 0-.85126-.10141-1.23259-.24653l2.00296-2.00297c.38629-.38629.38629-1.03119 0-1.41749l-.67792-.67792c-.19315-.19315-.45668-.30816-.70875-.30816-.25206 0-.5156.11501-.70874.30816l-1.94134 1.94133c-.10456-.32958-.18489-.68351-.18489-1.04771 0-1.90608 1.54519-3.45126 3.45127-3.45126.39824 0 .78423.0916 1.14016.2157l5.19081-5.2018z" fill="#c43ac4" stroke-width=".998627"/><g stroke-width="1.012726" transform="matrix(.98607815 0 0 .98607815 552.08863 460.0906)"><path d="m12.5 0c-1.933001 0-3.5 1.5669991-3.5 3.5 0 .08302.0180598.1623275.0253906.2441406.1333457-1.8112695 1.6292854-3.2441406 3.4746094-3.2441406.263545 0 .517674.04690666.765625.109375l.390625-.390625c-.360955-.12587238-.752398-.21875-1.15625-.21875zm3.28125 2.34375-1.90625 1.90625c-.391744.3917337-1.014516.3917337-1.40625 0l-.71875-.71875c-.130217-.1302233-.200495-.2888203-.244141-.453125-.087655.3299705-.017376.6915943.244141.953125l.71875.71875c.391734.3917337 1.014506.3917337 1.40625 0l1.90625-1.90625c.099981.2867393.165028.5959288.193359.9121094.006336-.0860585.025391-.1681829.025391-.2558594 0-.4038625-.092898-.7953151-.21875-1.15625zm-6.6738281 2.4140625-4.4511719 4.4609375c-.3609552-.1258521-.7523875-.21875-1.15625-.21875-1.9329908 0-3.5 1.567009-3.5 3.5 0 .084734.01750224.166535.02539063.25.13051465-1.814037 1.62730687-3.25 3.47460937-3.25.4038625 0 .7952948.0928979 1.15625.21875l4.5605469-4.5703125c-.0435649-.1255458-.076378-.2585056-.109375-.390625zm-2.2167969 6.9765625-.109375.109375c.0999813.28678.165031.595932.1933594.912109.0063356-.086059.0253906-.168182.0253906-.255859 0-.263545-.0469123-.517662-.109375-.765625zm-2.3632812 1.515625c-.0429595.171837-.1138517.336508-.2460938.46875l-2.03125 2.03125c.1229663.046796.2548711.079283.3847656.115234l1.6464844-1.646484c.2595017-.259502.330394-.631548.2460938-.96875z" fill="#e2e0e3" opacity=".3"/><path d="m13.265625.109375-1.515625 1.515625c-.261517.2615104-.331796.6231477-.244141.953125.043646-.1643013.113924-.3229119.244141-.453125l1.90625-1.90625c-.125403-.04373073-.25862-.07611798-.390625-.109375zm-4.2402344 3.1347656c-.0063356.0860589-.0253906.1681825-.0253906.2558594 0 .2607675.0460968.5122681.1074219.7578125l.109375-.109375c-.0987536-.2845892-.1633211-.5908626-.1914063-.9042969zm6.9492184.0117188c-.133345 1.8112599-1.629295 3.2441406-3.474609 3.2441406-.403863 0-.795305-.0928979-1.15625-.21875l-1.1875 1.1875c-.002599-.000033-.005211.0000247-.007812 0l-3.367188 3.375c.0437237.125414.076121.258614.109375.390625l3.257813-3.265625c.002601.0000247.005213-.000033.007812 0l1.1875-1.1875c.360945.1258521.752387.21875 1.15625.21875 1.932991 0 3.5-1.5670092 3.5-3.5 0-.08302-.01806-.1623269-.025391-.2441406zm-13.099609 7.5253906c-.2556187 0-.5228832.116623-.71875.3125l-1.96875 1.96875c-.08170959-.257554-.13561344-.532153-.16210937-.8125-.00605401.084145-.02539063.164312-.02539063.25 0 .369342.08146378.728267.1875 1.0625l1.96875-1.96875c.1958668-.195877.4631313-.3125.71875-.3125.2556288 0 .522873.116623.71875.3125l.6875.6875c.1322421.132245.2031343.296912.2460938.46875.0843002-.3372.0134079-.709242-.2460938-.96875l-.6875-.6875c-.195877-.195877-.4631212-.3125-.71875-.3125zm4.0996094 1.474609c-.1333449 1.811271-1.6292854 3.244141-3.4746094 3.244141-.2989802 0-.5866267-.057655-.8652344-.134766l-.3847656.384766c.3867138.147169.811627.25 1.25.25 1.9330009 0 3.5-1.566999 3.5-3.5 0-.083018-.0180605-.162328-.0253906-.244141z" fill="#120816" opacity=".2"/></g></g></svg>

<?xml version="1.0" encoding="UTF-8" standalone="no"?>
<svg
   xmlns:osb="http://www.openswatchbook.org/uri/2009/osb"
   xmlns:dc="http://purl.org/dc/elements/1.1/"
   xmlns:cc="http://creativecommons.org/ns#"
   xmlns:rdf="http://www.w3.org/1999/02/22-rdf-syntax-ns#"
   xmlns:svg="http://www.w3.org/2000/svg"
   xmlns="http://www.w3.org/2000/svg"
   xmlns:sodipodi="http://sodipodi.sourceforge.net/DTD/sodipodi-0.dtd"
   xmlns:inkscape="http://www.inkscape.org/namespaces/inkscape"
   width="16"
   height="16"
   version="1.1"
   id="svg14"
   sodipodi:docname="configure.svg"
   inkscape:version="0.92.4 (5da689c313, 2019-01-14)">
  <metadata
     id="metadata18">
    <rdf:RDF>
      <cc:Work
         rdf:about="">
        <dc:format>image/svg+xml</dc:format>
        <dc:type
           rdf:resource="http://purl.org/dc/dcmitype/StillImage" />
      </cc:Work>
    </rdf:RDF>
  </metadata>
  <sodipodi:namedview
     pagecolor="#ffffff"
     bordercolor="#666666"
     borderopacity="1"
     objecttolerance="10"
     gridtolerance="10"
     guidetolerance="10"
     inkscape:pageopacity="0"
     inkscape:pageshadow="2"
     inkscape:window-width="1920"
     inkscape:window-height="1016"
     id="namedview16"
     showgrid="false"
     inkscape:zoom="52.437502"
     inkscape:cx="8.0220093"
     inkscape:cy="7.9999971"
     inkscape:window-x="0"
     inkscape:window-y="27"
     inkscape:window-maximized="1"
     inkscape:current-layer="layer3" />
  <defs
     id="defs9">
    <linearGradient
       id="linearGradient5606"
       osb:paint="solid">
      <stop
         id="stop5608"
         offset="0"
         style="stop-color:#000000" />
    </linearGradient>
    <linearGradient
       id="linearGradient4526"
       osb:paint="solid">
      <stop
         id="stop4528"
         offset="0"
         style="stop-color:#ffffff" />
    </linearGradient>
    <linearGradient
       id="linearGradient3600-4"
       osb:paint="gradient">
      <stop
         id="stop3602-7"
         offset="0"
         style="stop-color:#f4f4f4" />
      <stop
         id="stop3604-6"
         offset="1"
         style="stop-color:#dbdbdb" />
    </linearGradient>
  </defs>
  <g
     id="layer3"
     transform="matrix(1.0141184,0,0,1.0141184,-559.88324,-466.58634)">
    <path
       d="m 564.41461,460.0906 c 0.39823,0 0.78422,0.0916 1.14015,0.21572 l -1.87972,1.87971 c -0.38628,0.38627 -0.38628,1.00037 0,1.38667 l 0.70875,0.70874 c 0.38628,0.38628 1.00039,0.38628 1.38668,0 l 1.8797,-1.87971 c 0.1241,0.35591 0.21571,0.74191 0.21571,1.14015 0,1.90608 -1.54519,3.45126 -3.45127,3.45126 -0.39824,0 -0.78424,-0.0916 -1.14016,-0.2157 l -1.17096,1.17097 c -0.0205,-2.6e-4 -0.0411,-2.6e-4 -0.0616,0 l -2.0646,-2.0646 1.20178,-1.20178 c -0.1241,-0.35592 -0.21571,-0.74191 -0.21571,-1.14015 0,-1.90609 1.54519,-3.45128 3.45128,-3.45128 z m -2.54374,3.88862 2.06459,2.0646 c -0.0109,0.0306 -0.0211,0.0614 -0.0308,0.0924 l -5.12918,5.14015 c 0.1241,0.35596 0.2157,0.74196 0.2157,1.14019 0,1.90609 -1.54518,3.45129 -3.45127,3.45129 -0.43227,0 -0.85126,-0.10141 -1.23259,-0.24653 l 2.00296,-2.00297 c 0.38629,-0.38629 0.38629,-1.03119 0,-1.41749 l -0.67792,-0.67792 c -0.19315,-0.19315 -0.45668,-0.30816 -0.70875,-0.30816 -0.25206,0 -0.5156,0.11501 -0.70874,0.30816 l -1.94134,1.94133 c -0.10456,-0.32958 -0.18489,-0.68351 -0.18489,-1.04771 0,-1.90608 1.54519,-3.45126 3.45127,-3.45126 0.39824,0 0.78423,0.0916 1.14016,0.2157 l 5.19081,-5.2018 z"
       style="fill:#62237c;fill-opacity:1;stroke-width:0.99862713"
       id="path11"
       inkscape:connector-curvature="0" />
    <path
       style="fill:#e2e0e3;fill-opacity:1;stroke-width:1.01272619;opacity:0.3"
       d="M 12.5 0 C 10.566999 0 9 1.5669991 9 3.5 C 9 3.58302 9.0180598 3.6623275 9.0253906 3.7441406 C 9.1587363 1.9328711 10.654676 0.5 12.5 0.5 C 12.763545 0.5 13.017674 0.54690666 13.265625 0.609375 L 13.65625 0.21875 C 13.295295 0.092877624 12.903852 0 12.5 0 z M 15.78125 2.34375 L 13.875 4.25 C 13.483256 4.6417337 12.860484 4.6417337 12.46875 4.25 L 11.75 3.53125 C 11.619783 3.4010267 11.549505 3.2424297 11.505859 3.078125 C 11.418204 3.4080955 11.488483 3.7697193 11.75 4.03125 L 12.46875 4.75 C 12.860484 5.1417337 13.483256 5.1417337 13.875 4.75 L 15.78125 2.84375 C 15.881231 3.1304893 15.946278 3.4396788 15.974609 3.7558594 C 15.980945 3.6698009 16 3.5876765 16 3.5 C 16 3.0961375 15.907102 2.7046849 15.78125 2.34375 z M 9.1074219 4.7578125 L 4.65625 9.21875 C 4.2952948 9.0928979 3.9038625 9 3.5 9 C 1.5670092 9 0 10.567009 0 12.5 C 0 12.584734 0.01750224 12.666535 0.025390625 12.75 C 0.15590528 10.935963 1.6526975 9.5 3.5 9.5 C 3.9038625 9.5 4.2952948 9.5928979 4.65625 9.71875 L 9.2167969 5.1484375 C 9.173232 5.0228917 9.1404189 4.8899319 9.1074219 4.7578125 z M 6.890625 11.734375 L 6.78125 11.84375 C 6.8812313 12.13053 6.946281 12.439682 6.9746094 12.755859 C 6.980945 12.6698 7 12.587677 7 12.5 C 7 12.236455 6.9530877 11.982338 6.890625 11.734375 z M 4.5273438 13.25 C 4.4843843 13.421837 4.4134921 13.586508 4.28125 13.71875 L 2.25 15.75 C 2.3729663 15.796796 2.5048711 15.829283 2.6347656 15.865234 L 4.28125 14.21875 C 4.5407517 13.959248 4.611644 13.587202 4.5273438 13.25 z "
       transform="matrix(0.98607815,0,0,0.98607815,552.08863,460.0906)"
       id="path1803" />
    <path
       style="fill:#120816;fill-opacity:1;stroke-width:1.01272619;opacity:0.2"
       d="M 13.265625 0.109375 L 11.75 1.625 C 11.488483 1.8865104 11.418204 2.2481477 11.505859 2.578125 C 11.549505 2.4138237 11.619783 2.2552131 11.75 2.125 L 13.65625 0.21875 C 13.530847 0.17501927 13.39763 0.14263202 13.265625 0.109375 z M 9.0253906 3.2441406 C 9.019055 3.3301995 9 3.4123231 9 3.5 C 9 3.7607675 9.0460968 4.0122681 9.1074219 4.2578125 L 9.2167969 4.1484375 C 9.1180433 3.8638483 9.0534758 3.5575749 9.0253906 3.2441406 z M 15.974609 3.2558594 C 15.841264 5.0671193 14.345314 6.5 12.5 6.5 C 12.096137 6.5 11.704695 6.4071021 11.34375 6.28125 L 10.15625 7.46875 C 10.153651 7.468717 10.151039 7.4687747 10.148438 7.46875 L 6.78125 10.84375 C 6.8249737 10.969164 6.857371 11.102364 6.890625 11.234375 L 10.148438 7.96875 C 10.151039 7.9687747 10.153651 7.968717 10.15625 7.96875 L 11.34375 6.78125 C 11.704695 6.9071021 12.096137 7 12.5 7 C 14.432991 7 16 5.4329908 16 3.5 C 16 3.41698 15.98194 3.3376731 15.974609 3.2558594 z M 2.875 10.78125 C 2.6193813 10.78125 2.3521168 10.897873 2.15625 11.09375 L 0.1875 13.0625 C 0.10579041 12.804946 0.051886556 12.530347 0.025390625 12.25 C 0.019336621 12.334145 0 12.414312 0 12.5 C 0 12.869342 0.08146378 13.228267 0.1875 13.5625 L 2.15625 11.59375 C 2.3521168 11.397873 2.6193813 11.28125 2.875 11.28125 C 3.1306288 11.28125 3.397873 11.397873 3.59375 11.59375 L 4.28125 12.28125 C 4.4134921 12.413495 4.4843843 12.578162 4.5273438 12.75 C 4.611644 12.4128 4.5407517 12.040758 4.28125 11.78125 L 3.59375 11.09375 C 3.397873 10.897873 3.1306288 10.78125 2.875 10.78125 z M 6.9746094 12.255859 C 6.8412645 14.06713 5.345324 15.5 3.5 15.5 C 3.2010198 15.5 2.9133733 15.442345 2.6347656 15.365234 L 2.25 15.75 C 2.6367138 15.897169 3.061627 16 3.5 16 C 5.4330009 16 7 14.433001 7 12.5 C 7 12.416982 6.9819395 12.337672 6.9746094 12.255859 z "
       transform="matrix(0.98607815,0,0,0.98607815,552.08863,460.0906)"
       id="path1808" />
  </g>
</svg>
